client/src/assets/images/optional.svg

<svg xmlns="http://www.w3.org/2000/svg" height="24" width="24"><path d="M3.25 3.25H10.75V10.75H3.25ZM4.75 4.75V9.25ZM13.25 3.25H20.75V10.75H13.25ZM14.75 4.75V9.25ZM3.25 13.25H10.75V20.75H3.25ZM4.75 14.75V19.25ZM16.25 13.25H17.75V16.25H20.75V17.75H17.75V20.75H16.25V17.75H13.25V16.25H16.25ZM14.75 4.75V9.25H19.25V4.75ZM4.75 4.75V9.25H9.25V4.75ZM4.75 14.75V19.25H9.25V14.75Z"/></svg>

<svg xmlns="http://www.w3.org/2000/svg" height="24" width="24"><path d="M3.25 10.75v-7.5h7.5v7.5Zm10 0v-7.5h7.5v7.5Zm-10 10v-7.5h7.5v7.5Zm13 0v-3h-3v-1.5h3v-3h1.5v3h3v1.5h-3v3Z"/></svg>
